icons/speech-bubble-two-color.svg

<?xml version="1.0" encoding="UTF-8"?><svg xmlns="http://www.w3.org/2000/svg" viewBox="0 0 50 50"><g id="uuid-7a993166-7f96-41d2-98c8-85408423ddf7"><g><path d="M50,23.3c0-6.46-5.25-11.71-11.71-11.71H14.38c-6.46,0-11.71,5.25-11.71,11.71s4.82,11.29,10.98,11.67c.15,0,.28,.08,.37,.2l4.3,5.73,4.28-5.69c.09-.13,.24-.2,.4-.2h15.29c6.46,0,11.71-5.25,11.71-11.71Z" fill="#ffcd00"/><path d="M36.62,9.1H12.71C5.7,9.1,0,14.8,0,21.8,0,28.42,5.11,33.93,11.69,34.46l4.57,6.08c.09,.13,.24,.2,.4,.2s.31-.07,.4-.2l4.53-6.03h15.04c7.01,0,12.71-5.7,12.71-12.71s-5.7-12.71-12.71-12.71Zm-15.69,24.62l-4.28,5.69-4.3-5.73c-.09-.12-.22-.19-.37-.2-6.16-.38-10.98-5.51-10.98-11.67S6.25,10.1,12.71,10.1h23.91c6.46,0,11.71,5.25,11.71,11.71s-5.25,11.71-11.71,11.71h-15.29c-.16,0-.31,.07-.4,.2Z"/></g></g><g id="uuid-4e94ca38-ff52-4ebb-b46e-4b7355b3722b"><text transform="translate(-.35 54.86)" font-family="Roboto-Regular, Roboto" font-size="6"><tspan x="0" y="0">speech-bubble</tspan></text></g></svg>

<svg xmlns="http://www.w3.org/2000/svg" viewBox="0 0 50 50"><g id="b43eafb9-2e8d-4b21-b4ea-f28ea57baf1a" data-name="ICONS"><path d="M50,23.3A11.72,11.72,0,0,0,38.29,11.6H14.38A11.7,11.7,0,0,0,13.65,35a.51.51,0,0,1,.37.2l4.31,5.73,4.27-5.69A.52.52,0,0,1,23,35H38.29A11.72,11.72,0,0,0,50,23.3Z" fill="#fdd600"/><path d="M36.62,9.1H12.71a12.7,12.7,0,0,0-1,25.36l4.56,6.08a.54.54,0,0,0,.4.2.51.51,0,0,0,.4-.2l4.53-6h15a12.71,12.71,0,1,0,0-25.41ZM20.93,33.71,16.65,39.4l-4.3-5.73a.53.53,0,0,0-.37-.2,11.7,11.7,0,0,1,.73-23.37H36.62a11.71,11.71,0,1,1,0,23.41H21.33A.51.51,0,0,0,20.93,33.71Z" fill="#231f20"/></g><g id="a36e796e-8966-4236-a872-1b002c9689d2" data-name="LABELS"><text transform="translate(-0.35 54.86)" font-size="6" fill="#231f20" font-family="Roboto-Regular, Roboto">speech-bubble</text></g></svg>
